X: 1
T: Rochester Schottische
R: shottish, reel
Z: 2020 John Chambers <jc:trillian.mit.edu>
S: https://www.facebook.com/groups/Fiddletuneoftheday/
M: 4/4
L: 1/8
K: D
|: de |\
"D"f2e2 d2B2 | ABAG FDde | f2e2 d2B2 | "A"A6 de |\
"D"f2e2 d2B2 | ABAG FDFG |
ABAG "A"FDEF | D6 :: FG |\
"D"ABAG FEDF | "G"EDEF G2B2 | "D"ABAG FED2 |
"G"EDFD G2FG |\
"D"ABAG FEDF | "G"EDEF G2B2 | "D"ABAG "A"FDEF | "D"D6 :|
